X: 0
T: Joyfully, Joyfully Angels Are Singing
Z: C. F. Roper
Z: Copyright © 2003 by Douglas D. Anderson
Z: Released To The Public Domain
L: 1/4
M: 3/4
Q: 1/4=110
V: P1 name="Staff"
%%MIDI program 1 19
K: Ab
[V: P1]  c3/ A/ A | A3/ F/ F | E F E | F E E | F G c | (B B) F | B3 | B3/ B/ B | B3/ B/ B | B e =B | =d c c | B3/ A/ G | (A3/ G/) F | E3 |"^Refrain" c3/ c/ c | e e e | e d d | d c2 | c c B | A3/ A/ F | G3 | c3/ c/ c | =A G F | F B c | d2 B | A3/ E/ c | (B3/ E/) c | A3|]
w: Joy- ful ly, joy- ful ly an- gels are sing- ing, O'er Beth- le hem's plains_ of light; Won- der ful, won- der ful mes- sage now bring- ing To wel- come the Christ-_ mas night. "Glo- ry to God in the high- est, all glo- ry! Peace on the earth and good will;" An- gels are tel- ling the mar- vel lous sto- ry, Shep- herds are list'n-_ ing still.

